X:1
T:Bag of Spuds
T:Anything for Joe John
W: Next: Sligo Creek
R:reel
M:C|
L:1/8
K:Amin
"Am"A2eA BAeA | ABcd egdB | "G"G2BG dGBA | GBB2 GBdB |
"F"A2eA BAeA | ABcd egdB | "Em"GA (3B^cd e^fge |1 dBGA BAAG :|2 dBGA BAA2 |:
"Am"a2eg ageg | "F"agbg age^f | "C"gedc "G"BG (3B^cd | "Em"g3a bgeg |
"Am"a2eg ageg | "F"agbg ageg | "D"d^cde "Em"g3e | "G"dBGA "(G#)"BAA2 :|


